X:73
T:Scotch Whiskey
R:Reel
O:England
M:2/4
L:1/8
A:Lancashire
B:Winder
K:G
D|\
G>G Bd | gd cB | cB AG | FA FD |\
G>G Bd | gf ge | fe d^c | d2 d :|*
|:B/2c/2|\
dd/2d/2 df | gd cB | cE AG | FA FD |\
BB/2B/2 dB | cd eg | dB cA | G2 G :|**
